svgs/anilabx.svg

<svg width="192" height="192" viewBox="0 0 192 192" fill="none" xmlns="http://www.w3.org/2000/svg">
<path d="M69.2966 22H121.808M73.8839 26.498V65.8554C73.8839 65.8554 31.8407 128.265 22.7853 147.944C20.0973 153.785 24.603 162 31.8407 162C51.2452 162 145.034 162 161.204 162C168.209 162 171.949 153.453 168.966 147.944C158.617 128.827 117.867 65.8554 117.867 65.8554L117.867 25.9357" stroke="black" stroke-width="12" stroke-linecap="round" stroke-linejoin="round"/>
<path d="M47 107.5C92.2864 84.4961 99 136.805 127.5 123C156 109.195 144.5 115 144.5 115" stroke="black" stroke-width="12" stroke-linecap="round" stroke-linejoin="round"/>
<circle cx="89" cy="39" r="3" stroke="black" stroke-width="6" stroke-linejoin="round"/>
<circle cx="103" cy="56" r="3" stroke="black" stroke-width="6" stroke-linejoin="round"/>
<circle cx="90" cy="79" r="4" stroke="black" stroke-width="8" stroke-linejoin="round"/>
<circle cx="117" cy="102" r="4" stroke="black" stroke-width="8" stroke-linejoin="round"/>
</svg>

<svg xmlns="http://www.w3.org/2000/svg" width="192" height="192" fill="none" stroke="#000" stroke-linecap="round" stroke-linejoin="round" stroke-width="12" viewBox="0 0 192 192"><path d="M69.297 22h52.511m-47.924 4.498v39.357s-42.043 62.41-51.099 82.089C20.097 153.785 24.603 162 31.841 162h129.363c7.005 0 10.745-8.547 7.762-14.056-10.349-19.117-51.099-82.089-51.099-82.089v-39.92"/><path d="M47 107.5c45.286-23.004 52 29.305 80.5 15.5s17-8 17-8"/><circle cx="89" cy="39" r="3" stroke-width="6"/><circle cx="103" cy="56" r="3" stroke-width="6"/><circle cx="90" cy="79" r="4" stroke-width="8"/><circle cx="117" cy="102" r="4" stroke-width="8"/></svg>
